svg/logos/logo-coinmarketcap.svg

<?xml version="1.0" encoding="UTF-8"?>
<svg width="60px" height="60px" viewBox="0 0 60 60" version="1.1" xmlns="http://www.w3.org/2000/svg" xmlns:xlink="http://www.w3.org/1999/xlink">
    <!-- Generator: Sketch 58 (84663) - https://sketch.com -->
    <title>logo-coinmarketcap</title>
    <desc>Created with Sketch.</desc>
    <g id="Website" stroke="none" stroke-width="1" fill="none" fill-rule="evenodd">
        <g id="06-token" transform="translate(-840.000000, -2357.000000)" fill="#FFFFFF">
            <g id="Group-25" transform="translate(0.000000, 1972.000000)">
                <g id="Group-12" transform="translate(10.000000, 335.000000)">
                    <g id="Group-8" transform="translate(720.000000, 0.000000)">
                        <g id="logo-coinmarketcap" transform="translate(110.000000, 50.000000)">
                            <path d="M51.4009756,35.8536585 C50.3546341,36.515122 49.122439,36.5970732 48.1858537,36.0687805 C46.9960976,35.3970732 46.3419512,33.8239024 46.3419512,31.6360976 L46.3419512,25.0902439 C46.3419512,21.9292683 45.0921951,19.68 43.002439,19.0726829 C39.4609756,18.0409756 36.797561,22.3741463 35.7965854,24.0014634 L29.5507317,34.1282927 L29.5507317,21.7507317 C29.4804878,18.9029268 28.5556098,17.1995122 26.7995122,16.6858537 C25.637561,16.3463415 23.8990244,16.482439 22.2102439,19.0668293 L8.21707317,41.5360976 C6.34372157,37.9796932 5.36714399,34.0196309 5.37217563,30 C5.37217563,16.464878 16.2190244,5.45414634 29.5507317,5.45414634 C42.882439,5.45414634 53.7278049,16.464878 53.7278049,30 C53.7278049,30.0234146 53.7336585,30.0439024 53.735122,30.0658537 C53.735122,30.0892683 53.7307317,30.1097561 53.7321951,30.1331707 C53.8580488,32.7541463 53.0092683,34.8395122 51.4009756,35.855122 L51.4009756,35.8536585 Z M59.1,30.0014634 L59.1,30 L59.1,29.9326829 L59.0985366,29.8653659 C59.0239024,13.3814634 45.7990244,0 29.5492683,0 C13.2570732,0 0,13.457561 0,30 C0,46.5409756 13.2570732,60 29.5507317,60 C37.0273171,60 44.1629268,57.1580488 49.6404878,51.9995122 C50.7292683,50.975122 50.7936585,49.2497561 49.7839024,48.1463415 C49.3037964,47.6169108 48.6307752,47.3030412 47.9166039,47.2755095 C47.2024326,47.2479779 46.5072451,47.5091024 45.9878049,48 C41.5479218,52.2043552 35.6653996,54.5469942 29.5507317,54.5458537 C22.4121951,54.5458537 15.9892683,51.3863415 11.5595122,46.3756098 L24.1785366,26.1131707 L24.1785366,35.4541463 C24.1785366,39.9409756 25.9185366,41.3912195 27.377561,41.8156098 C28.8380488,42.24 31.0697561,41.9502439 33.4126829,38.1453659 L40.3536585,26.8931707 C40.5760976,26.5302439 40.7809756,26.2170732 40.9682927,25.9463415 L40.9682927,31.6360976 C40.9682927,35.8302439 42.6482927,39.1843902 45.5765854,40.8365854 C48.2165854,42.3263415 51.5356098,42.1917073 54.24,40.4853659 C57.5180488,38.4146341 59.2843902,34.5995122 59.1,30.0014634 L59.1,30.0014634 Z" id="Shape"></path>
                        </g>
                    </g>
                </g>
            </g>
        </g>
    </g>
</svg>

<svg width="60" height="60" xmlns="http://www.w3.org/2000/svg"><path d="M51.401 35.854c-1.046.661-2.279.743-3.215.215-1.19-.672-1.844-2.245-1.844-4.433V25.09c0-3.16-1.25-5.41-3.34-6.017-3.541-1.032-6.204 3.301-7.205 4.928L29.55 34.128V21.751c-.07-2.848-.995-4.551-2.751-5.065-1.162-.34-2.901-.204-4.59 2.38L8.217 41.537A24.687 24.687 0 0 1 5.372 30c0-13.535 10.847-24.546 24.179-24.546 13.331 0 24.177 11.01 24.177 24.546 0 .023.006.044.007.066 0 .023-.004.044-.003.067.126 2.621-.723 4.707-2.331 5.722v-.001zM59.1 30v-.068l-.001-.068C59.024 13.381 45.799 0 29.549 0 13.257 0 0 13.458 0 30c0 16.541 13.257 30 29.55 30 7.477 0 14.613-2.842 20.09-8a2.754 2.754 0 0 0 .144-3.854A2.659 2.659 0 0 0 45.988 48a23.899 23.899 0 0 1-16.437 6.546c-7.139 0-13.562-3.16-17.991-8.17l12.619-20.263v9.341c0 4.487 1.74 5.937 3.199 6.362 1.46.424 3.692.134 6.035-3.67l6.94-11.253a20.4 20.4 0 0 1 .615-.947v5.69c0 4.194 1.68 7.548 4.609 9.2 2.64 1.49 5.959 1.356 8.663-.35C57.518 38.414 59.284 34.6 59.1 30z" fill="#FFF" fill-rule="evenodd"/></svg>
